X:984
T:Daniel of the Sun
T:Domnall Na Greine
R:double jig
C:"collected by F. O'Neill"
S:984 O'Neill's Music of Ireland
N:The original includes transcription errors in bars 4 & 9
N:a tilde has been used to denote a trill
B:O'Neill's 984
Z:Transcribed by Robert Thorpe (thorpe@skep.com)
Z:ABCMUS 1.0
M:6/8
K:D
d/-e/|fdd fedd|fef dBA|B-ee e2 d|B-ee e2 d/-e/|
|fdd edd|fef dBA|B-dd d2 A|B-dd d2:|
d/-e/|fga efg|fef dBA|Bee ede|B-ee e2 g|
|fga efg|fef dBA|B-dd d2 A|B-dd d2|
d/-e/|~f2 d ~e2 d|~f2 e dBA|Bee e2 d|Bee e2 d/-e/|
|fdd edd|fef dBA|B-dd d2 A|B-dd d2||
